style/icons/shield40_si_2.svg

<svg width="32.5" height="20" version="1.1" viewBox="0 0 32.5 20" xmlns="http://www.w3.org/2000/svg">
 <g fill-rule="evenodd" stroke-width=".5">
  <path d="m3.3244 20a3.3388 3.3388 0 0 1-3.3244-3.3075v-13.385a3.3388 3.3388 0 0 1 3.3244-3.3075h25.851a3.3388 3.3388 0 0 1 3.3244 3.3075v13.385a3.3388 3.3388 0 0 1-3.3244 3.3075z" fill="#009140"/>
  <path d="m28.964 1.0375a2.5043 2.5043 0 0 1 2.5017 2.48v12.965a2.5043 2.5043 0 0 1-2.5017 2.48h-25.428a2.5043 2.5043 0 0 1-2.5017-2.48v-12.965a2.5043 2.5043 0 0 1 2.5017-2.48z" fill="#fff"/>
  <path d="m16.25 1.7412a3.1411 3.1411 0 0 0-0.5684 0.05625l-12.867 2.005a0.72205 0.72205 0 0 0-0.52475 0.69125c0 0.0253 0.00365 0.055 5e-3 0.03875v10.935c-0.0013-0.0163-5e-3 0.01345-5e-3 0.03875a0.72205 0.72205 0 0 0 0.525 0.69125l12.867 2.005a2.9 2.9 0 0 0 1.1368 0l12.867-2.005a0.72205 0.72205 0 0 0 0.525-0.69125c0-0.0253-0.0037-0.055-5e-3 -0.03875v-10.935c0.0013 0.0163 5e-3 -0.01345 5e-3 -0.03875a0.72205 0.72205 0 0 0-0.525-0.69125l-12.867-2.005a3.1411 3.1411 0 0 0-0.56865-0.05625z" fill="#009140"/>
 </g>
</svg>

<svg width="32.5" height="20" xmlns="http://www.w3.org/2000/svg">
 <g fill-rule="evenodd" stroke-width=".5">
  <path d="M3.324 20A3.339 3.339 0 0 1 0 16.692V3.307A3.339 3.339 0 0 1 3.324 0h25.851A3.339 3.339 0 0 1 32.5 3.307v13.385A3.339 3.339 0 0 1 29.175 20z" fill="#009140"/>
  <path d="M28.964 1.038a2.504 2.504 0 0 1 2.502 2.48v12.965a2.504 2.504 0 0 1-2.502 2.48H3.536a2.504 2.504 0 0 1-2.502-2.48V3.518a2.504 2.504 0 0 1 2.502-2.48z" fill="#fff"/>
  <path d="M16.25 1.741a3.141 3.141 0 0 0-.568.056L2.815 3.802a.722.722 0 0 0-.525.692c0 .025.003.055.005.038v10.935c-.001-.016-.005.014-.005.04a.722.722 0 0 0 .525.69l12.867 2.005a2.9 2.9 0 0 0 1.137 0l12.867-2.005a.722.722 0 0 0 .525-.69c0-.026-.004-.056-.005-.04V4.532c0 .017.005-.013.005-.038a.722.722 0 0 0-.525-.692L16.819 1.797a3.141 3.141 0 0 0-.569-.056z" fill="#009140"/>
 </g>
</svg>
